!!!COM:	Praetorius, Michael
!!!OTL:	Christ fuhr gen Himmel
**kern	**kern	**kern	**kern
*ICvox	*ICvox	*ICvox	*ICvox
*I"Bassus	*I"Tenor	*I"Altus	*I"Diskantus
*clefF4	*clefGv2	*clefG2	*clefG2
*k[]	*k[]	*k[]	*k[]
*M2/2	*M2/2	*M2/2	*M2/2
!!Meter Interpreted, Nat Condit-Schultz, 2018, Free
*met(c)	*met(c)	*met(c)	*met(c)
1D	1d	1f	1a
2E	2B	2e	2g
2D	2d	2f	2a
(2A	2c	2e	(2cc
2G)	2B	8gL	2dd)
.	.	8f	.
.	.	8d	.
.	.	8eJ	.
2.F	2.c	2.f	2.a
=	=	=	=
4FF	4c	4f	4a
2F	2A	2c	2a
2D	2A	2d	2f
2C#	2A	2e	2a
2D	2A	2d	2f
2AA	1A	2c#	(2e
(2D	.	2d	2f)
1GG)	1G	1B	1d
=	=	=	=
1G	2r	1B	1d
.	2G	.	.
2E	2G	2B	2g
2Cn	2.G	2e	2g
2G	.	2B	2d
.	2G	.	.
2E	.	2e	2c
.	4G	.	.
2D	2F	2A	2f
2BB	2D	2d	2g
2.AA	2.E	2.c#	2.a
=	=	=	=
4D	4F	4d	4a
2C#	2.A	2e	2a
2D	.	2A	2f
.	4F	.	.
2AA	2E	2cn	2a
2D	2F	2A	2f
2Cn	2G	1c	2e
2FF	2A	.	2f
(2GG	1G	2B	(2d
2C)	.	2c	2e)
4AA	4A	4e	4c#
4AA	4E	4A	4c#
2D	2F#	2A	2d
1D	1F#	1A	1d
=	=	=	=
1AA	1c	1e	2.a
.	.	.	4g
2D	(2A	1d	2f
2G	2B)	.	2g
2F	1c	2f	2a
2E	.	2g	2ccn
1F	1c	1f	1a
=	=	=	=
1C	1e	1g	2.cc
.	.	.	4b
(2D	2A	2f	2a
2E)	2G	2g	2cc
2F	1c	2f	2a
2C	.	2e	2g
1FF	1A	1c	1f
=	=	=	=
2.F	2A	2.c	2.a
.	2c	.	.
4C	.	4e	4g
2D	2A	4d	2f
.	.	4c	.
2GG	2G	2B	2d
2C	2G	2c	2e
2D	2F	2A	2f
1D	1F	1A	1d
=	=	=	=
2C	2G	2e	2g
4BB	4G	4d	4g
4C	4G	4c	4e
2GG	2G	2B	2d
2AA	4E	2A	2c
.	2F	.	.
4.BB-	.	2d	2f
.	8GL	.	.
8AA	8AJ	.	.
2GG	2B-	2e	2g
1FF	1c	1f	1a
=	=	=	=
2F	2A	2c	2a
4D	4A	4d	4f
4G	4Bn	4e	4g
2F'	8cL	4f	2a
.	8BJ	.	.
.	2A	4c	.
2D	.	(2d	2f
.	4A	.	.
(2C#	1A	2e)	2e
2D)	.	(1d	2f
(2BBn	(2G	.	2d
2AA)	2E)	2c#)	2e
=	=	=	=
4AA	4E	4e	4c#
4AA	4E	4A	4c#
2D	2F#	2A	2d
1D	1F#	1A	1d
=	=	=	=
2D	2A	2f	2.a
2C#	2A	2e	.
.	.	.	4g
2D	2A	2d	2f
2G	2B	2e	2g
2F	2c	2f	2a
2E	2c	2g	2ccn
1F	1c	1f	1a
=	=	=	=
1Cn	1e	1g	1cc
2D	2d	2f	2a
2E	2c	2g	2cc
2F	2c	2f	2a
2C	2c	2e	2g
1F	1A	1c	1f
=	=	=	=
2D	2A	2f	2.a
2C#	2A	2e	.
.	.	.	4g
2D	2A	2.d	2f
2BB	2G	.	2d
.	.	4d	.
2Cn	2G	2c	2e
2D	2F	2A	2f
1GG	1G	1B	1d
=	=	=	=
2GG	2B	2d	2g
4BB	4G	4d	4g
4Cn	4A	4c	4e
2D	2A	2f	2d
2E	2G	2e	2c
(2D	(2F	2A	2f
2BB)	2D)	2B	2g
1AA	1E	1c#	1a
=	=	=	=
2AA	2E	2cn	2a
4D	4F	4A	4f
4BB	4D	4d	4g
2AA	2E	2c	2a
2D	2F	2A	2f
(2C	(2G	1c	(2e
2FF)	2A)	.	2f)
(2GG	1G	(2B	2d
2C)	.	2c)	2e
=	=	=	=
4AA	4A	4e	4c#
4AA	4E	4A	4c#
2GG	1G	1B	2d
00D	.	.	00d
.	4F#	4A	.
.	4E	4G	.
.	0.F#	0.A	.
==	==	==	==
*-	*-	*-	*-
